X: 493
T: Cowboy's Dream
C:Traditional
B: jims roots
M:C|
L:1/8
Q: 1/4=100
K:D
V:1 
|:Ac | "D"defg afed | "A"cdec "D"dABc | defa- afed | "A"c[e2e][ee] [e2e]Ac |
"D"defg afed | "A"cdec "D"dABc | "G"BABc dBAG| F"A"DEC "D"D2:|
|: FA | "D"[A2F][A2D]-[AD]EFD | "A"E[E2A,][EA,][E2A,] CB, |[1 A,B,CD EFAc | dAce "D"d2 :|
V:2 A,B,CD EFAG | FDEF "D"D2|
x64||
% abcbook-tune_id 6298c2458574fea0c5ca55af


% abcbook-boost 0
% abcbook-tablature 
% abcbook-transpose 
% abcbook-lastupdated 1654178373827
% abcbook-soundfonts 
% abcbook-repeats 1


